;FLAVOR:Marlin
;TIME:30221
;Filament used: 36.5048m
;Layer height: 0.16
;MINX:7.239
;MINY:2.822
;MINZ:0.2
;MAXX:219.744
;MAXY:219.659
;MAXZ:26.6
;Generated with Cura_SteamEngine 4.3.0
M140 S50
M105
M190 S50
M104 S200
M105
M109 S200
M82 ;absolute extrusion mode
M201 X500.00 Y500.00 Z100.00 E5000.00 ;Setup machine max acceleration
M203 X500.00 Y500.00 Z10.00 E50.00 ;Setup machine max feedrate
M204 P500.00 R1000.00 T500.00 ;Setup Print/Retract/Travel acceleration
M205 X8.00 Y8.00 Z0.40 E5.00 ;Setup Jerk
M220 S100 ;Reset Feedrate
M221 S100 ;Reset Flowrate

G28 ;Home

G92 E0 ;Reset Extruder
G1 Z2.0 F3000 ;Move Z Axis up
G1 X10.1 Y20 Z0.28 F5000.0 ;Move to start position
G1 X10.1 Y200.0 Z0.28 F1500.0 E15 ;Draw the first line
G1 X10.4 Y200.0 Z0.28 F5000.0 ;Move to side a little
G1 X10.4 Y20 Z0.28 F1500.0 E30 ;Draw the second line
G92 E0 ;Reset Extruder
G1 Z2.0 F3000 ;Move Z Axis up

G92 E0
G92 E0
G1 F2700 E-5
;LAYER_COUNT:138
;LAYER:0
M107
G0 F6000 X12.851 Y22.762 Z0.2
;TYPE:SKIRT
G1 F2700 E0
G1 F1200 X15.014 Y21.471 E0.08378
G1 X15.158 Y21.386 E0.08934
G1 X16.381 Y20.681 E0.13629
G1 X16.508 Y20.609 E0.14115
G1 X18.34 Y19.585 E0.21096
G1 X18.48 Y19.508 E0.21627
G1 X19.739 Y18.828 E0.26386
G1 X19.875 Y18.756 E0.26898
G1 X21.758 Y17.773 E0.33963
G1 X21.896 Y17.702 E0.34479
G1 X23.183 Y17.053 E0.39273
G1 X23.322 Y16.984 E0.39789
G1 X25.2 Y16.07 E0.46736
G1 X25.336 Y16.005 E0.47237
G1 X26.615 Y15.404 E0.51938
G1 X26.764 Y15.336 E0.52482
G1 X28.685 Y14.468 E0.59494
G1 X28.828 Y14.404 E0.60015
G1 X30.169 Y13.821 E0.64878
G1 X30.306 Y13.763 E0.65373
G1 X32.245 Y12.951 E0.72365
G1 X32.394 Y12.89 E0.729
G1 X33.671 Y12.377 E0.77477
G1 X33.811 Y12.322 E0.77978
G1 X35.866 Y11.529 E0.85304
G1 X36.007 Y11.475 E0.85806
G1 X37.236 Y11.02 E0.90165
G1 X37.396 Y10.962 E0.90731
G1 X39.497 Y10.221 E0.98141
G1 X39.635 Y10.174 E0.98626
G1 X40.887 Y9.751 E1.03021
G1 X41.038 Y9.701 E1.0355
G1 X43.117 Y9.032 E1.10814
G1 X43.264 Y8.986 E1.11326
G1 X44.579 Y8.583 E1.15901
G1 X44.73 Y8.538 E1.16425
G1 X46.81 Y7.933 E1.2363
G1 X46.961 Y7.89 E1.24152
G1 X48.29 Y7.524 E1.28737
G1 X48.44 Y7.484 E1.29253
G1 X50.499 Y6.948 E1.3633
G1 X50.647 Y6.91 E1.36838
G1 X51.999 Y6.578 E1.41468
G1 X52.151 Y6.542 E1.41988
G1 X54.272 Y6.053 E1.49227
G1 X54.423 Y6.019 E1.49742
G1 X55.772 Y5.728 E1.54332
G1 X55.925 Y5.697 E1.54851
G1 X57.965 Y5.287 E1.61772
G1 X58.109 Y5.259 E1.6226
G1 X59.552 Y4.989 E1.67143
G1 X59.716 Y4.959 E1.67697
G1 X61.851 Y4.593 E1.74902
G1 X62.01 Y4.567 E1.75438
G1 X63.314 Y4.363 E1.79828
G1 X63.459 Y4.341 E1.80315
G1 X65.623 Y4.032 E1.87586
G1 X65.783 Y4.011 E1.88123
G1 X67.152 Y3.836 E1.92713
G1 X67.302 Y3.818 E1.93215
G1 X69.417 Y3.577 E2.00295
G1 X69.576 Y3.56 E2.00827
G1 X70.977 Y3.421 E2.0551
G1 X71.126 Y3.407 E2.06008
G1 X73.22 Y3.228 E2.12998
G1 X73.373 Y3.216 E2.13508
G1 X74.857 Y3.11 E2.18457
G1 X75.019 Y3.1 E2.18996
G1 X77.102 Y2.982 E2.25936
G1 X77.249 Y2.974 E2.26425
G1 X78.638 Y2.914 E2.31049
G1 X78.798 Y2.909 E2.31582
G1 X80.96 Y2.847 E2.38776
G1 X81.121 Y2.843 E2.39311
G1 X82.477 Y2.824 E2.43822
G1 X82.626 Y2.823 E2.44317
G1 X84.787 Y2.822 E2.51505
G1 X84.949 Y2.823 E2.52044
G1 X86.349 Y2.843 E2.56701
G1 X86.502 Y2.846 E2.5721
G1 X88.663 Y2.907 E2.644
G1 X88.815 Y2.913 E2.64906
G1 X90.147 Y2.969 E2.6934
G1 X90.303 Y2.976 E2.69859
G1 X92.508 Y3.1 E2.77205
G1 X92.667 Y3.11 E2.77735
G1 X94.009 Y3.205 E2.8221
G1 X94.161 Y3.217 E2.82717
G1 X96.343 Y3.402 E2.9
G1 X96.5 Y3.417 E2.90525
G1 X97.831 Y3.549 E2.94973
G1 X97.983 Y3.565 E2.95482
G1 X100.172 Y3.813 E3.02809
G1 X100.33 Y3.832 E3.03338
G1 X101.651 Y4.001 E3.07768
G1 X101.803 Y4.021 E3.08277
G1 X103.963 Y4.328 E3.15534
G1 X104.121 Y4.352 E3.16065
G1 X105.478 Y4.565 E3.20634
G1 X105.627 Y4.59 E3.21137
G1 X107.743 Y4.952 E3.28277
G1 X107.897 Y4.979 E3.28797
G1 X109.297 Y5.239 E3.33533
G1 X109.45 Y5.269 E3.34051
G1 X111.505 Y5.681 E3.41022
G1 X111.655 Y5.712 E3.41532
G1 X113.046 Y6.011 E3.46264
G1 X113.201 Y6.045 E3.46792
G1 X115.243 Y6.515 E3.53761
G1 X115.397 Y6.552 E3.54288
G1 X116.84 Y6.906 E3.59229
G1 X116.988 Y6.943 E3.59737
G1 X118.976 Y7.46 E3.66569
G1 X119.121 Y7.499 E3.67068
G1 X120.526 Y7.885 E3.71915
G1 X120.68 Y7.928 E3.72446
G1 X122.684 Y8.51 E3.79387
G1 X122.834 Y8.555 E3.79908
G1 X124.21 Y8.976 E3.84694
G1 X124.355 Y9.022 E3.852
G1 X126.339 Y9.659 E3.92131
G1 X126.492 Y9.709 E3.92666
G1 X127.918 Y10.19 E3.97671
G1 X128.068 Y10.242 E3.98199
G1 X130.006 Y10.927 E4.05036
G1 X130.143 Y10.976 E4.0552
G1 X131.47 Y11.465 E4.10224
G1 X131.618 Y11.521 E4.1075
G1 X133.585 Y12.278 E4.1776
G1 X133.727 Y12.334 E4.18268
G1 X135.079 Y12.876 E4.23112
G1 X135.231 Y12.938 E4.23658
G1 X137.172 Y13.75 E4.30656
G1 X137.308 Y13.808 E4.31148
G1 X138.584 Y14.362 E4.35775
G1 X138.729 Y14.426 E4.36302
G1 X140.714 Y15.322 E4.43545
G1 X140.858 Y15.389 E4.44074
G1 X142.082 Y15.963 E4.4857
G1 X142.22 Y16.028 E4.49078
G1 X144.173 Y16.977 E4.563
G1 X144.31 Y17.045 E4.56808
G1 X145.52 Y17.654 E4.61314
G1 X145.657 Y17.724 E4.61825
G1 X147.569 Y18.72 E4.68996
G1 X147.714 Y18.797 E4.69542
G1 X148.973 Y19.477 E4.74301
G1 X149.108 Y19.551 E4.74813
G1 X150.935 Y20.571 E4.81773
G1 X151.073 Y20.649 E4.823
G1 X152.315 Y21.366 E4.8707
G1 X152.444 Y21.442 E4.87568
G1 X154.249 Y22.517 E4.94555
G1 X154.383 Y22.598 E4.95076
G1 X155.617 Y23.357 E4.99895
G1 X155.747 Y23.439 E5.00406
G1 X157.484 Y24.541 E5.07248
G1 X157.618 Y24.627 E5.07777
G1 X158.876 Y25.451 E5.12779
G1 X159.003 Y25.535 E5.13285
G1 X160.698 Y26.679 E5.20087
G1 X160.822 Y26.764 E5.20587
G1 X161.999 Y27.582 E5.25354
G1 X162.137 Y27.68 E5.25917
G1 X163.882 Y28.933 E5.33062
G1 X164.002 Y29.02 E5.33555
G1 X165.127 Y29.851 E5.38207
G1 X165.252 Y29.945 E5.38727
G1 X166.954 Y31.24 E5.45841
G1 X167.075 Y31.334 E5.4635
G1 X168.168 Y32.19 E5.50968
G1 X168.29 Y32.287 E5.51486
G1 X169.942 Y33.619 E5.58544
G1 X170.068 Y33.722 E5.59086
G1 X171.18 Y34.646 E5.63894
G1 X171.295 Y34.742 E5.64392
G1 X172.894 Y36.108 E5.71387
G1 X173.01 Y36.209 E5.71899
G1 X174.066 Y37.137 E5.76575
G1 X174.186 Y37.244 E5.77109
G1 X175.766 Y38.674 E5.84197
G1 X175.872 Y38.771 E5.84675
G1 X176.914 Y39.739 E5.89405
G1 X177.034 Y39.852 E5.89954
G1 X178.537 Y41.291 E5.96874
G1 X178.647 Y41.398 E5.97385
G1 X179.671 Y42.406 E6.02164
G1 X179.788 Y42.523 E6.02714
G1 X181.312 Y44.069 E6.09935
G1 X181.41 Y44.17 E6.10403
G1 X182.339 Y45.137 E6.14863
G1 X182.451 Y45.255 E6.15404
G1 X183.934 Y46.845 E6.22635
G1 X184.038 Y46.958 E6.23146
G1 X184.973 Y47.989 E6.27775
G1 X185.076 Y48.104 E6.28289
G1 X186.447 Y49.659 E6.35184
G1 X186.551 Y49.779 E6.35712
G1 X187.529 Y50.921 E6.40713
G1 X187.63 Y51.04 E6.41232
G1 X188.963 Y52.642 E6.48164
G1 X189.061 Y52.762 E6.48679
G1 X189.944 Y53.854 E6.5335
G1 X190.038 Y53.972 E6.53852
G1 X191.364 Y55.659 E6.60988
G1 X191.47 Y55.796 E6.61565
G1 X192.317 Y56.909 E6.66216
G1 X192.402 Y57.022 E6.66687
G1 X193.645 Y58.7 E6.73632
G1 X193.735 Y58.823 E6.74139
G1 X194.597 Y60.021 E6.79048
G1 X194.693 Y60.157 E6.79602
G1 X195.895 Y61.882 E6.86595
G1 X195.974 Y61.997 E6.87059
G1 X196.756 Y63.15 E6.91692
G1 X196.849 Y63.29 E6.92251
G1 X198.026 Y65.084 E6.99388
G1 X198.112 Y65.216 E6.99912
G1 X198.861 Y66.394 E7.04555
G1 X198.941 Y66.522 E7.05057
G1 X200.053 Y68.325 E7.12102
G1 X200.133 Y68.457 E7.12616
G1 X200.859 Y69.672 E7.17323
G1 X200.937 Y69.806 E7.17839
G1 X201.998 Y71.64 E7.24886
G1 X202.076 Y71.777 E7.2541
G1 X202.776 Y73.028 E7.30178
G1 X202.852 Y73.165 E7.30699
G1 X203.876 Y75.058 E7.37858
G1 X203.945 Y75.187 E7.38344
G1 X204.568 Y76.376 E7.42809
G1 X204.644 Y76.525 E7.43365
G1 X205.612 Y78.443 E7.50511
G1 X205.679 Y78.578 E7.51012
G1 X206.311 Y79.874 E7.55808
G1 X206.379 Y80.016 E7.56332
G1 X207.256 Y81.882 E7.63189
G1 X207.321 Y82.023 E7.63706
G1 X207.931 Y83.37 E7.68624
G1 X207.993 Y83.509 E7.6913
G1 X208.828 Y85.423 E7.76075
G1 X208.89 Y85.567 E7.76597
G1 X209.44 Y86.878 E7.81325
G1 X209.498 Y87.021 E7.81839
G1 X210.292 Y88.991 E7.88903
G1 X210.355 Y89.151 E7.89475
G1 X210.869 Y90.486 E7.94233
G1 X210.919 Y90.617 E7.94699
G1 X211.638 Y92.558 E8.01584
G1 X211.692 Y92.708 E8.02114
G1 X212.183 Y94.095 E8.07008
G1 X212.232 Y94.235 E8.07501
G1 X212.901 Y96.209 E8.14434
G1 X212.953 Y96.365 E8.1498
G1 X213.392 Y97.727 E8.1974
G1 X213.437 Y97.873 E8.20248
G1 X214.061 Y99.905 E8.27318
G1 X214.106 Y100.054 E8.27836
G1 X214.498 Y101.398 E8.32492
G1 X214.54 Y101.546 E8.33004
G1 X215.106 Y103.593 E8.40068
G1 X215.146 Y103.743 E8.40584
G1 X215.507 Y105.124 E8.45332
G1 X215.546 Y105.275 E8.4585
G1 X216.047 Y107.309 E8.52818
G1 X216.084 Y107.465 E8.53351
G1 X216.411 Y108.881 E8.58184
G1 X216.444 Y109.031 E8.58695
G1 X216.89 Y111.093 E8.65712
G1 X216.922 Y111.246 E8.66232
G1 X217.201 Y112.631 E8.70931
G1 X217.23 Y112.779 E8.71433
G1 X217.626 Y114.894 E8.78589
G1 X217.654 Y115.052 E8.79123
G1 X217.878 Y116.353 E8.83514
G1 X217.903 Y116.5 E8.8401
G1 X218.25 Y118.693 E8.91395
G1 X218.273 Y118.847 E8.91912
G1 X218.463 Y120.169 E8.96355
G1 X218.485 Y120.328 E8.96889
G1 X218.766 Y122.508 E9.04199
G1 X218.785 Y122.665 E9.04725
G1 X218.937 Y123.995 E9.09178
G1 X218.953 Y124.147 E9.09686
G1 X219.173 Y126.342 E9.17023
G1 X219.188 Y126.499 E9.17548
G1 X219.301 Y127.816 E9.21944
G1 X219.313 Y127.966 E9.22445
G1 X219.471 Y130.159 E9.29757
G1 X219.481 Y130.324 E9.30307
G1 X219.559 Y131.695 E9.34875
G1 X219.567 Y131.844 E9.35371
G1 X219.659 Y133.967 E9.42439
G1 X219.664 Y134.119 E9.42944
G1 X219.706 Y135.546 E9.47693
G1 X219.71 Y135.701 E9.48208
G1 X219.742 Y137.783 E9.55134
G1 X219.743 Y137.945 E9.55673
G1 X219.744 Y139.417 E9.60569
G1 X219.743 Y139.57 E9.61078
G1 X219.715 Y141.681 E9.68099
G1 X219.712 Y141.833 E9.68605
G1 X219.675 Y143.2 E9.73153
G1 X219.67 Y143.356 E9.73673
G1 X219.58 Y145.535 E9.80926
G1 X219.572 Y145.695 E9.81459
G1 X219.496 Y147.055 E9.85989
G1 X219.486 Y147.208 E9.86499
G1 X219.336 Y149.354 E9.93654
G1 X219.324 Y149.512 E9.94181
G1 X219.205 Y150.922 E9.98888
G1 X219.192 Y151.07 E9.99382
G1 X218.985 Y153.182 E10.0644
G1 X218.967 Y153.344 E10.06982
G1 X218.808 Y154.751 E10.11692
G1 X218.79 Y154.902 E10.12198
G1 X218.527 Y156.972 E10.19138
G1 X218.507 Y157.127 E10.19658
G1 X218.306 Y158.548 E10.24431
G1 X218.283 Y158.699 E10.24939
G1 X217.949 Y160.844 E10.32159
G1 X217.924 Y160.995 E10.32668
G1 X217.701 Y162.307 E10.37095
G1 X217.673 Y162.468 E10.37638
G1 X217.279 Y164.595 E10.44833
G1 X217.249 Y164.748 E10.45351
G1 X216.972 Y166.133 E10.50049
G1 X216.942 Y166.279 E10.50545
G1 X216.499 Y168.348 E10.57582
G1 X216.464 Y168.507 E10.58124
G1 X216.143 Y169.905 E10.62895
G1 X216.108 Y170.051 E10.63394
G1 X215.615 Y172.071 E10.7031
G1 X215.577 Y172.224 E10.70834
G1 X215.208 Y173.647 E10.75724
G1 X215.167 Y173.798 E10.76244
G1 X214.608 Y175.834 E10.83266
G1 X214.566 Y175.984 E10.83784
G1 X214.178 Y177.323 E10.88421
G1 X214.136 Y177.467 E10.8892
G1 X213.52 Y179.489 E10.9595
G1 X213.473 Y179.639 E10.96473
G1 X213.037 Y181 E11.01227
G1 X212.986 Y181.154 E11.01766
G1 X212.318 Y183.138 E11.08729
G1 X212.269 Y183.28 E11.09229
G1 X211.791 Y184.638 E11.14017
G1 X211.739 Y184.782 E11.14526
G1 X210.989 Y186.822 E11.21755
G1 X210.931 Y186.976 E11.22303
G1 X210.462 Y188.195 E11.26647
G1 X210.407 Y188.335 E11.27147
G1 X209.591 Y190.372 E11.34445
G1 X209.532 Y190.516 E11.34963
G1 X209.004 Y191.782 E11.39525
G1 X208.942 Y191.929 E11.40056
G1 X208.075 Y193.926 E11.47297
G1 X208.017 Y194.058 E11.47776
G1 X207.456 Y195.305 E11.52324
G1 X207.39 Y195.449 E11.52851
G1 X206.504 Y197.345 E11.59812
G1 X206.433 Y197.493 E11.60358
G1 X205.773 Y198.852 E11.65383
G1 X205.706 Y198.988 E11.65887
G1 X204.789 Y200.812 E11.72677
G1 X204.721 Y200.945 E11.73174
G1 X204.043 Y202.249 E11.78062
G1 X203.967 Y202.392 E11.78601
G1 X202.959 Y204.263 E11.8567
G1 X202.882 Y204.405 E11.86207
G1 X202.221 Y205.59 E11.9072
G1 X202.147 Y205.719 E11.91215
G1 X201.067 Y207.595 E11.98414
G1 X200.987 Y207.732 E11.98942
G1 X200.289 Y208.905 E12.03482
G1 X200.211 Y209.034 E12.03983
G1 X199.092 Y210.857 E12.11098
G1 X199.009 Y210.991 E12.11622
G1 X198.229 Y212.222 E12.16469
G1 X198.145 Y212.352 E12.16984
G1 X197.007 Y214.093 E12.23902
G1 X196.925 Y214.216 E12.24393
G1 X196.526 Y214.809 E12.26771
G1 X195.97 Y215.564 E12.29889
G1 X195.352 Y216.269 E12.33007
G1 X194.675 Y216.919 E12.36129
G1 X193.946 Y217.508 E12.39246
G1 X193.169 Y218.034 E12.42367
G1 X192.35 Y218.491 E12.45486
G1 X191.496 Y218.877 E12.48603
G1 X190.611 Y219.189 E12.51724
G1 X189.703 Y219.424 E12.54844
G1 X188.779 Y219.581 E12.57961
G1 X187.844 Y219.659 E12.61082
G1 X186.906 Y219.657 E12.64202
G1 X185.972 Y219.575 E12.6732
G1 X185.048 Y219.414 E12.7044
G1 X184.141 Y219.174 E12.7356
G1 X183.258 Y218.858 E12.76679
G1 X182.752 Y218.638 E12.78515
G1 X182.332 Y218.442 E12.80056
G1 X179.943 Y217.368 E12.88768
G1 X177.582 Y216.385 E12.97274
G1 X175.296 Y215.511 E13.05414
G1 X172.889 Y214.666 E13.13899
G1 X170.489 Y213.899 E13.22279
G1 X168.095 Y213.207 E13.30568
G1 X165.647 Y212.575 E13.38977
G1 X163.159 Y212.006 E13.47465
G1 X160.713 Y211.522 E13.55759
G1 X158.256 Y211.105 E13.64047
G1 X155.734 Y210.75 E13.72518
G1 X153.258 Y210.474 E13.80805
G1 X150.458 Y210.243 E13.90149
G1 X149.893 Y210.204 E13.92033
G1 X148.96 Y210.1 E13.95155
G1 X148.041 Y209.917 E13.98272
G1 X147.14 Y209.656 E14.01392
G1 X146.264 Y209.32 E14.04512
G1 X145.421 Y208.91 E14.0763
G1 X144.615 Y208.429 E14.10752
G1 X143.854 Y207.882 E14.13869
G1 X142.911 Y207.051 E14.18049
G1 X142.277 Y206.424 E14.21015
G1 X142.075 Y206.219 E14.21972
G1 X25.811 Y85.062 E19.80469
G1 X25.8 Y85.051 E19.80521
G1 X24.803 Y84.009 E19.85317
G1 X18.731 Y77.678 E20.14493
G1 X18.634 Y77.576 E20.14962
G1 X18.132 Y77.039 E20.17407
G1 X17.522 Y76.327 E20.20525
G1 X16.974 Y75.566 E20.23644
G1 X16.493 Y74.761 E20.26763
G1 X16.082 Y73.918 E20.29882
G1 X15.745 Y73.042 E20.33004
G1 X15.483 Y72.142 E20.36122
G1 X15.299 Y71.222 E20.39242
G1 X15.178 Y69.992 E20.43353
G1 X15.159 Y69.543 E20.44848
G1 X15.154 Y69.403 E20.45314
G1 X15.101 Y67.611 E20.51276
G1 X14.954 Y65.059 E20.59779
G1 X14.741 Y62.586 E20.68034
G1 X14.45 Y60.057 E20.76501
G1 X14.098 Y57.603 E20.84747
G1 X13.662 Y55.081 E20.93259
G1 X13.176 Y52.669 E21.01443
G1 X12.601 Y50.184 E21.09926
G1 X11.962 Y47.739 E21.18332
G1 X11.255 Y45.319 E21.26717
G1 X10.487 Y42.939 E21.35035
G1 X9.648 Y40.572 E21.43388
G1 X8.743 Y38.231 E21.51735
G1 X8.412 Y37.438 E21.54593
G1 X8.357 Y37.304 E21.55075
G1 X8.025 Y36.479 E21.58033
G1 X7.713 Y35.594 E21.61154
G1 X7.476 Y34.687 E21.64272
G1 X7.318 Y33.762 E21.67393
G1 X7.239 Y32.828 E21.70511
G1 X7.241 Y31.89 E21.73631
G1 X7.322 Y30.956 E21.76749
G1 X7.482 Y30.031 E21.79871
G1 X7.72 Y29.124 E21.8299
G1 X8.035 Y28.241 E21.86108
G1 X8.424 Y27.388 E21.89226
G1 X8.884 Y26.57 E21.92348
G1 X9.413 Y25.795 E21.95468
G1 X10.005 Y25.068 E21.98587
G1 X10.657 Y24.394 E22.01706
G1 X11.364 Y23.778 E22.04825
G1 X12.32 Y23.095 E22.08732
G1 X12.579 Y22.93 E22.09754
G1 X12.851 Y22.762 E22.10817
G0 F6000 X13.056 Y23.105
G1 F1200 X15.219 Y21.814 E22.19195
G1 X15.358 Y21.733 E22.1973
G1 X16.581 Y21.028 E22.24425
G1 X16.703 Y20.958 E22.24893
G1 X18.535 Y19.934 E22.31874
G1 X18.67 Y19.86 E22.32386
G1 X19.929 Y19.18 E22.37145
G1 X20.061 Y19.11 E22.37642
G1 X21.944 Y18.127 E22.44707
G1 X22.076 Y18.059 E22.45201
G1 X23.363 Y17.41 E22.49995
G1 X23.497 Y17.344 E22.50492
G1 X25.375 Y16.43 E22.57438
G1 X25.506 Y16.367 E22.57922
G1 X26.785 Y15.766 E22.62622
G1 X26.928 Y15.7 E22.63146
G1 X28.849 Y14.832 E22.70157
G1 X28.988 Y14.771 E22.70662
G1 X30.329 Y14.188 E22.75525
G1 X30.461 Y14.132 E22.76002
G1 X32.4 Y13.32 E22.82994
G1 X32.543 Y13.261 E22.83509
G1 X33.82 Y12.748 E22.88086
G1 X33.955 Y12.695 E22.88568
G1 X36.01 Y11.902 E22.95894
G1 X36.146 Y11.85 E22.96379
G1 X37.375 Y11.395 E23.00738
G1 X37.529 Y11.34 E23.01281
G1 X39.63 Y10.599 E23.08691
G1 X39.763 Y10.553 E23.09159
G1 X41.015 Y10.13 E23.13555
G1 X41.161 Y10.082 E23.14066
G1 X43.24 Y9.413 E23.2133
G1 X43.381 Y9.368 E23.21822
G1 X44.696 Y8.965 E23.26397
G1 X44.842 Y8.922 E23.26903
G1 X46.922 Y8.317 E23.34108
G1 X47.068 Y8.275 E23.34613
G1 X48.397 Y7.909 E23.39198
G1 X48.541 Y7.871 E23.39693
G1 X50.6 Y7.335 E23.4677
G1 X50.742 Y7.299 E23.47257
G1 X52.094 Y6.967 E23.51887
G1 X52.241 Y6.932 E23.5239
